X:8
S:A. L. Lloyd
M:3/4
K:G
L:1/4
f3 | edB | e2f | d2B | A2B | d2e | (d3 | d3)
a3 | fga | b3 | afe | d2f | e2d | (B3 | B3)
a3 | fga | b3 | afe | d2f | e2d | (B3 | B3)
f2f | edB | e2f | d2B | A2B | d2e | (d3 | d3)
a2b | d'2e' | (d'3 | d'3) :|
